!!!!SEGMENT: pl-wtm--r-1372_stefani-jozef--marsz-z-baletu-korsarz.krn
!!!cenid: 18xx:2413
!!!COM: Stefani, Józef
!!!COM-rismid: pe30024097
!!!CDT: 1800/04/16-1876/03/19
!!!CNT: Polish
!!!OTL: Marsz z baletu Korsarz
!!!PDT:
!!!AGN: Secular; March
!!!SMS-siglum: PL-Wtm
!!!SMS-shelfmark: R 1372
!!!SMS-shelfwork: W
!!!SMS-variant:
!!!SMS-altvar:
!!!NIFC-rismid: 1001117218
!!!URL-scan: http://repozytorium.nifc.pl/skany/pl-wtm-nut--r1372
!!!ONB-nifc:
!!!AIN: 2 forte
!!!key:
**kern	**kern	**dynam
*part2	*part1	*part1
*staff2	*staff1	*
*Iforte	*Iforte	*
*I"fortepian	*I"fortepian	*
*>[A,B,B,C,D,D]	*>[A,B,B,C,D,D]	*
*clefF4	*clefG2	*
*k[f#c#]	*k[f#c#]	*
*b:	*b:	*
*M2/4	*M2/4	*
=1	=1	=1
*>A	*>A	*
*all\right	*all\right	*
!	!LO:TX:t=P:problem=większość dolnych caud z prawej strony	!
!	!LO:TX:a:i:t=Marcia	!
!	!LO:TX:a:i:t=maestoso	!LO:DY:rj
4B\ 4F#\ 4D\ 4BB\	4bb\ 4ff#\ 4dd\ 4b'^<\	ff
4B\ 4F#\ 4D\ 4BB\	4ff#\ 4dd\ 4b'^<\	.
=2	=2	=2
*	*^	*
8B\L 8G\ 8E\	8gg'/L	4ee\ 4b\	.
8B\J 8G\ 8E\	(16gg/L	.	.
.	16bb/JJ)	.	.
4B\ 4F#\ 4D\ 4BB\	4ff#/	4dd\ 4b\	.
*	*v	*v	*
=3	=3	=3
!LO:TX:t=P:mixedbeam:problem	!	!
8FF#/L	16ee\LL|	p
.	16dd\|	.
8e\J 8A#X\ 8F#\	16cc#\|	.
.	16ee\JJ|	.
!LO:TX:t=P:problem=mixedbeam	!	!
8FF#/L	16dd\LL|	.
.	16cc#\|	.
8d\J 8B\ 8F#\	16b\|	.
.	16b\JJ|	.
=4	=4	=4
!LO:TX:t=P:problem=mixedbeam	!	!
.	(>8qdd/	.
8FF#/L	16cc#\LL	.
.	16b#X\	.
8c#\ 8A#X\ 8F#\	16cc#\	.
.	16dd\JJ	.
8c#\J 8A#\ 8F#\	8cc#\)	.
8c#\ 8A#\ 8F#\	8ff#\| 8cc#\ 8a#X\	sf
=5	=5	=5
!	!	!LO:DY:rj
4B\ 4F#\ 4D\ 4BB\	4bb\| 4ff#\ 4dd\ 4b^<\	ff
4B\ 4F#\ 4D\ 4BB\	4ff#\| 4dd\ 4b^<\	.
!!LO:LB:g=original
=6	=6	=6
*	*^	*
8B\L 8G\ 8E\	8gg/L 8ee'/	8b\L	.
8B\J 8G\ 8E\	(16gg/L	8b\J	.
.	16ee/JJ)	.	.
4B\ 4F#\ 4D\ 4BB\	4ff#/' 4dd/	4b\	.
*	*v	*v	*
=7	=7	=7
!	!	!LO:DY:rj
4A\ 4G\ 4E\ 4C#\	16aa\LL|	p
.	16gg\|	.
.	16ee\|	.
.	16bb\JJ|	.
8A\L 8F#\ 8D\	16aa\LL|	.
.	16ff#\|	.
8A\J 8F#\	16dd\|	.
.	16dd#X\JJ|	.
=8	=8	=8
.	(>(8qff#/	f
8B\L 8G\	16ee\LL)	.
.	16dd#X\	.
8g\J 8e\ 8A\	16ee\	.
.	16aa\JJ	.
8f#\ 8d\	8ddn\)	.
8r	8r	.
=9!|:	=9!|:	=9!|:
*>B	*>B	*
*clefG2	*	*
!	!	!LO:DY:rj
8c#'/L	(8ff#\L 8ee\ 8a#X'\	p
(16e/L	8ff#\ 8ee\ 8a#'\	.
16f#/JJ)	.	.
8c#'/	8ff#\J 8ee\ 8a#'\	.
8r	8r	.
=10	=10	=10
8B'/L	(8ff#\L 8dd\ 8b'\)	.
(16d/L	8ff#\ 8dd\ 8b'\	.
16f#/JJ)	.	.
8B'/	8ff#\J 8dd\ 8b\	.
8r	8r)	.
!!LO:LB:g=original
=11	=11	=11
4d/ 4B/ 4G/	8dd'\L	.
.	(16b\L	<
.	16cc#\JJ	.
8d/L 8B/ 8G/	8dd\L)	.
8e/J 8B/ 8G/	8ee'\J	[
=12	=12	=12
*clefF4	*	*
.	8qgg/	f
8F#/ 8FF#/	(16ff#\LL	.
.	16ee#X\	.
8c#\L 8A#X\ 8F#\	16ff#\	.
.	16gg\JJ	.
8c#\J 8A#\ 8F#\	8ff#\)	.
8r	8r	.
=13	=13	=13
*clefG2	*	*
!	!	!LO:DY:rj
8c#/L	(8ff#\L 8ee\ 8a'\	p
16e/L	8ff#\ 8ee\ 8a'\	.
16f#/JJ	.	.
8c#/	8ff#\J 8ee\ 8a'\	.
8r	8r)	.
=14	=14	=14
8B/L	(8ff#\L 8dd\ 8b'\	.
16d/L	8ff#\ 8dd\ 8b'\	.
16f#/JJ	.	.
8B/	8ff#\J 8dd\ 8b'\)	.
8r	8r	.
=15	=15	=15
*clefF4	*	*
!	!	!LO:DY:rj
4d\ 4B\ 4G\	8ddd\L 8dd'\	f
.	16bb\L 16b'\	.
.	16ccc#\JJ 16cc#'\	.
8d\L 8B\ 8G\	8ddd\L 8dd'\	.
8c#\J 8B\ 8G\	8ee#X\J 8e#X\	.
!!LO:LB:g=original
=16	=16	=16
8c#\L 8A#X\ 8F#\	8ff#\ 8f#\	.
16F#\L	8r	.
16G\JJ	.	.
16F#\LL	8r	.
16E\	.	.
16D\	(16ff#\LL	.
16C#\JJ	32gg#X\L	.
.	32aa#X\JJJ	.
=17	=17	=17
4BB/	4bb\ 4ff#\ 4dd\ 4b'^<\)	.
4B\ 4F#\ 4D\ 4BB\	4ff#\ 4dd\ 4b^<\	.
=18	=18	=18
*	*^	*
8B\L 8G\ 8E\	8gg'/L	8ee\L 8b\	.
8B\J 8G\ 8E\	(16gg/L	8ee\J 8b\	.
.	16bb/JJ)	.	.
4B\ 4F#\ 4D\ 4BB\	4ff#/	4dd\ 4b\	.
*	*v	*v	*
=19	=19	=19
!LO:TX:t=P:problem=mixedbeam	!	!LO:DY:rj
8FF#/L	16ee'\LL	p
.	16dd'\	.
8e\J 8c#\ 8A#X\ 8F#\	16cc#'\	.
.	16ee'\JJ	.
8FF#/L	16dd'\LL	.
.	16cc#'\	.
!LO:TX:t=P:problem=mixedbeam	!	!
8d\J 8B\ 8F#\	16b'\	.
.	16dd'\JJ	.
=20	=20	=20
!LO:TX:t=P:problem=mixedbeam	!	!
.	8qdd/	.
8FF#/L	(16cc#\LL	.
.	16b#X\	.
8c#\ 8A#X\ 8F#\	16cc#\	.
.	16dd\JJ	.
8c#\J 8A#\ 8F#\	8cc#\)	.
8c#\ 8A#\ 8F#\	8ff#\| 8cc#\ 8a#X\	sf
!!LO:LB:g=original
=21	=21	=21
!	!	!LO:DY:rj
4B\ 4F#\ 4D\ 4BB\	4bb\ 4ff#\ 4dd\ 4b'^<\	ff
4B\ 4F#\ 4D\ 4BB\	4ff#\ 4dd\ 4b'^<\	.
=22	=22	=22
*	*^	*
8B\L 8G\ 8E\	8gg'/L =/	8ee\L 8b\	.
8B\J 8G\ 8E\	(16gg/L	8b\J	.
.	16ee/JJ)	.	.
4B\ 4F#\ 4D\ 4BB\	4ff#/	4dd\ 4b\	.
*	*v	*v	*
=23	=23	=23
!LO:TX:t=P:problem=mixedbeam	!	!LO:DY:rj
8FF#/L	16ee'\LL	p
.	16dd'\	.
8e\J 8A#X\ 8F#\	16cc#'\	.
.	16ee'\JJ	.
8FF#/L	16dd'\LL	.
.	16cc#'\	.
!LO:TX:t=P:problem=mixedbeam	!	!
8d\J 8B\ 8F#\	16b'\	.
.	16dd'\JJ	.
=24	=24	=24
!	!	!LO:DY:rj
8e\L 8c#\ 8F#\	16a#X'\LL	f
.	16b'\	.
8e\J 8c#\ 8F#\	16cc#'\	.
.	16dd'\JJ	.
8d\ 8B\	8b'\	.
!LO:TX:i:b:t=fine	!LO:TX:t=P:problem=fermata na kresce taktowej	!
8r	8r;	.
!!LO:PB:g=original
=25:|!	=25:|!	=25:|!
*>C	*>C	*
*k[f#]	*k[f#]	*
!	!LO:TX:a:i:t=Trio.	!LO:DY:rj
8GG\L	8dd\L 8b'\	p
.	(>8qcc#X/	.
8d\J 8B\ 8G\	8dd\J)	.
*rep	*	*
8GG\L	8dd\L 8b'\	.
.	(>8qcc#/	.
8d\J 8B\ 8G\	8dd\J)	.
*Xrep	*	*
=26	=26	=26
!LO:TX:t=P:problem=mixedbeam	!	!
8GG/L	8dd\ 8b\	.
8d\J 8B\ 8G\	8r	.
.	(16qqgg/LL	f
*rep	*	*
!LO:TX:t=P:problem=mixedbeam	!	!
.	16qqaa/JJ	.
8GG/L	4bb\)	.
8d\J 8B\ 8G\	.	.
*Xrep	*	*
=27	=27	=27
!LO:TX:t=P:problem=mixedbeam	!	!
8FF#/L	8dd\L 8b'\	p
.	(>8qcc#X/	.
8d\J 8A\ 8F#\	8dd\J)	.
*rep	*	*
!LO:TX:t=P:problem=mixedbeam	!	!
8FF#/L	8dd\L 8a'\	.
.	(>8qcc#/	.
8d\J 8A\ 8F#\	8dd\J)	.
*Xrep	*	*
=28	=28	=28
!LO:TX:t=P:problem=mixedbeam	!	!
8FF#/L	8dd\ 8a\	.
8d\J 8A\ 8F#\	8r	.
.	(32qqdd/LLL	f
.	32qqee/	.
.	32qqff#/	.
*rep	*	*
!LO:TX:t=P:problem=mixedbeam	!	!
.	32qqgg/JJJ)	.
8FF#/L	4aa\	.
8d\J 8A\ 8F#\	.	.
*Xrep	*	*
!!LO:LB:g=original
=29	=29	=29
*^	*	*
4E/	8E\L	8gg\L 8b'\	.
.	.	(8qff#/	.
.	8B\J 8G\	8gg\J)	.
4AA/	8AA\L	8ee\L 8cc#X'\	.
.	.	(>8qdd#X/	.
.	8A\J 8E\ 8C#X\	8ee\J)	.
=30	=30	=30	=30
4D/	8D\L	8aa\L 8ff#'\	.
.	.	(>8qgg#X/	.
.	8A\J 8F#\	8aa\J)	.
4BB/	8BB\L	8ff#\L 8dd'\	.
.	.	(>8qee#X/	.
.	8B\J 8F#\ 8D\	8ff#\J)	.
=31	=31	=31	=31
4E/	8E\L	8gg\L 8b'\	.
.	.	(>8qff#/	.
.	8B\J 8G\	8gg\J)	.
4AA/	8AA\L	8ee\L 8cc#X'\	.
.	.	(>8qdd#X/	.
.	8A\J 8E\ 8C#X\	8ee\J)	.
*v	*v	*	*
=32	=32	=32
!	!	!LO:DY:rj
16F#\LL 16D\	16dd'\LL	ff
16A\	16ee\ 16cc#X\ 16a'\	.
16F#\ 16D\	16ff#\ 16dd\ 16a'\	.
16A\JJ	16ee\JJ 16cc#\ 16a'\	.
8F#\ 8D\	8dd\ 8a'\	.
8r	8r	p
=33	=33	=33
!LO:TX:t=P:problem=mixedbeam	!	!
8GG/L	8dd\L 8b'\	.
.	(>8qcc#X/	.
8d\J 8B\ 8G\	8ddX\J)	.
!!LO:LB:g=original
!LO:TX:t=P:problem=mixedbeam	!	!
8GG/L	8dd\L 8b'\	.
.	(>8qcc#/	.
8d\J 8B\ 8G\	8dd\J)	.
!!LO:LB:g=original
=34	=34	=34
!LO:TX:t=P:problem=mixedbeam	!	!
8GG/L	8dd\ 8b\	.
8d\J 8B\ 8G\	8r	.
.	(16qqgg/LL	f
!LO:TX:t=P:problem=mixedbeam	!	!
.	16qqaa/JJ	.
8GG/L	4bb\)	.
8d\J 8B\ 8G\	.	.
=35	=35	=35
!LO:TX:t=P:problem=mixedbeam	!	!
8FF#/L	8dd\L 8a'\	p
.	(>8qcc#X/	.
8d\J 8A\ 8F#\	8dd\J)	.
!LO:TX:t=P:problem=mixedbeam	!	!
8FF#/L	8dd\L 8a'\	.
.	(<8qcc#/	.
8d\J 8A\ 8F#\	8dd\J)	.
=36	=36	=36
!LO:TX:t=P:problem=mixedbeam	!	!
8FF#/L	8dd\ 8a\	.
8d\J 8A\ 8F#\	8r	.
.	(32qqdd/LLL	.
.	32qqee/	.
.	32qqff#/	f
!LO:TX:t=P:problem=mixedbeam	!	!
.	32qqgg/JJJ)	.
8FF#/L	4aa\	.
8d\J 8A\ 8F#\	.	.
=37	=37	=37
*^	*	*
4E/	8E\L	8gg\L 8ee\ 8b'\	.
.	.	(8qff#/	.
.	8B\J 8G\	8gg\J)	.
4D/	8D\L	8gg#X\L 8ee\ 8b'\	.
.	.	(8qff#/	.
.	8B\J 8G#X\ 8E\	8gg#\J)	.
=38	=38	=38	=38
4C/	8C\L	8aa\L 8ee'\	.
.	.	(8qgg#X/	.
.	8A\J 8E\	8aa\J)	.
4C#X/	8C#\L	8eee\L 8aa#X\ 8gg#y'\	.
.	.	(8qddd#X/	.
.	8A#X\J 8G\ 8E\	8eee\J)	.
!!LO:LB:g=original
=39	=39	=39	=39
4D/	8D\L	16ddd\LL	.
.	.	16bb\	.
.	8B\J 8G\	16gg\	.
.	.	16bb\JJ	.
4D/	8D\L	16ddd\LL	.
.	.	16ccc\	.
.	8c\J 8F#\	16bb\	.
.	.	16aa\JJ	.
*v	*v	*	*
=40	=40	=40
!	!	!LO:DY:rj
16B\LL 16G'\	16gg'\LL	ff
16d\ 16A\ 16D'\	16aa\ 16ff#'\	.
16d\ 16B\ 16G'\	16bb\ 16gg'\	.
16d\JJ 16A\ 16D'\	16aa\JJ 16ff#'\	.
8d\ 8B\ 8G\	8gg'\	.
!	!LO:TX:b:t=V&colon;S&colon;	!
8r	8r	.
!!LO:PB:g=original
=41!|:	=41!|:	=41!|:
*>D	*>D	*
!	!	!LO:DY:rj
4D#X/ 4DD#X/	4bb\ 4ff#\ 4b^<\	f
4B\ 4F#\ 4D#\	4ff#^<\	.
=42	=42	=42
8B\L 8G\ 8E\	(16gg\LL	.
.	16aa\	.
8B\ 8G\ 8E\	16gg\	.
.	16ff#\JJ)	.
8B\ 8G\ 8E\	8ee\L	.
8B\J 8G\ 8E\	8ee'\J	.
=43	=43	=43
4B\ 4F#\ 4BB\	16dd#X'\LL	.
.	16ee'\J	.
.	8ff#'\J	.
4A\ 4F#\ 4BB\	16b'\LL	.
.	16cc#X\J	.
.	8dd#'\J	.
=44	=44	=44
8G\L 8E\	(16ee\LL	.
.	16ff#\	.
8G\ 8E\	16gg\	.
.	16aa\JJ	.
8G\ 8E\	8bb\)	.
8G\J 8E\ 8D\	8bb-X\| 8b-X^<\	.
!!LO:LB:g=original
=45	=45	=45
4A\ 4G\ 4E\ 4C#X\	4aa\ 4ee\ 4a'^<\	.
4A\ 4G\ 4E\ 4C#\	4ee'^<\	.
=46	=46	=46
*2\right	*	*
*tremolo	*	*
!LO:TX:t=....	!	!
8A\L 8F#\ 8D'\	(16ff#\LL	.
.	16gg\	.
8A\ 8F#\ 8D'\	16ff#\	.
.	16ee\JJ	.
8A\ 8F#\ 8D'\	8dd'\L)	.
8A\J 8F#\ 8D'\	8dd'\J	.
*Xtremolo	*	*
=47	=47	=47
4A\ 4E\ 4AA\	16cc#X'\LL	.
.	16dd'\J	.
.	8ee'\J	.
4G\ 4E\ 4AA\	16a'/LL	.
.	16b'/J	.
.	8cc#'/J	.
=48	=48	=48
8F#\ 8D\	8dd\	.
8cn\L 8A\	8r	.
8B\ 8G\	4r	.
8A\J 8D\	.	.
=49	=49	=49
8G\L 8GG\	8dd\L 8b'\	fp
.	(8qcc#X/	.
8d\J 8B\ 8G\	8dd\J)	.
!LO:TX:t=P:problem=mixedbeam	!	!
8GG/L	8dd\L 8b'\	.
.	(8qcc#/	.
8d\J 8B\ 8G\	8dd\J)	.
=50	=50	=50
8GG/L	8dd\ 8b\	.
!LO:TX:t=P:problem=mixedbeam	!	!
8d\J 8B\ 8G\	8r	.
.	(16qqgg/LL	.
.	16qqaa/JJ	f
*rep	*	*
8GG/L	4bb\)	.
!LO:TX:t=P:problem=mixedbeam	!	!
8d\J 8B\ 8G\	.	.
*Xrep	*	*
!!LO:LB:g=original
=51	=51	=51
!LO:TX:t=P:problem=mixedbeam	!	!
8FF#/L	8dd\L 8a'\	p
.	(8qcc#X/	.
8d\J 8A\ 8F#\	8dd\J)	.
*rep	*rep	*
8FF#/L	8dd\L 8a'\	.
!LO:TX:t=P:problem=mixedbeam	!	!
.	(8qcc#/	.
8d\J 8A\ 8F#\	8dd\J)	.
*Xrep	*Xrep	*
=52	=52	=52
!LO:TX:t=P:problem=mixedbeam	!	!
8FF#/L	8dd\ 8a\	.
8d\J 8A\ 8F#\	8r	.
.	(32qqdd/LLL	.
.	32qqee/	.
.	32qqff#/	f
.	32qqgg/JJJ	.
*rep	*	*
!LO:TX:t=P:problem=mixedbeam	!	!
8FF#/L	4aa\)	.
8d\J 8A\ 8F#\	.	.
*Xrep	*	*
=53	=53	=53
*^	*	*
4E/	8E\L	8gg\L 8ee\ 8b'\	.
.	.	(8qff#/	.
.	8B\J 8G\	8gg\J)	<
4D/	8D\L	8gg#X\L 8ee\ 8b'\	.
.	.	(8qff#/	.
.	8B\J 8G\ 8E\	8gg#\J)	.
=54	=54	=54	=54
4C/	8C\L	8aa\L 8ee'\	.
.	.	(8qgg#X/	.
.	8A\J 8E\	8aa\J)	[[
4C#X/	8C#\L	8eee\L 8aa#X\ 8ee'\	.
.	.	(8qddd#X/	.
.	8A#X\J 8G\ 8E\	8eee\J)	.
!!LO:LB:g=original
=55	=55	=55	=55
4D/	8D\L	16ddd'\LL	.
.	.	16bb'\	.
.	8B\J 8G\	16gg'\	.
.	.	16bb'\JJ	.
4D/	8D\L	16ddd'\LL	.
.	.	16ccc'\	.
.	8c\J 8F#\	16bb'\	.
.	.	16aa'\JJ	.
*v	*v	*	*
=56	=56	=56
!	!	!LO:DY:rj
16B\LL 16G'\	16gg'\LL	ff
16d\ 16A\ 16D'\	16aa\ 16ff#'\	.
16d\ 16B\ 16G'\	16bb\ 16gg'\	.
16d\JJ 16A\ 16D'\	16aa\JJ 16ff#'\	.
8d\ 8B\ 8G'\	8gg'\	.
!	!LO:TX:b:i:t=da capo Marcia al fine.	!
!	!LO:TX:t=P:problem=fermata na kresce taktowej	!
8r	8r;	.
=:!|	=:!|	=:!|
*-	*-	*-
!!!system-decoration: {(s1,s2)}
!!!RDF**kern: > = above
!!!RDF**kern: < = below
!!!RDF**kern: | = vertical stroke
!!!EED: Andrzej Borzym
!!!EST: 2021-06-23
!!!ENC: Anastazja Marusiak
!!!END: 2021-06-14
